X:7781
T:Untitled Jig #1
O:england
M:6/8
L:1/8
Q:3/8=140
S:Lee Cremo
R:jig
K:A
cd |: efe c2 d | efe c2 e | dcd B2 c | d3 {e}dcd |
efe ce=g | fef dfa | g2 b gfg |1 a3 a3 :|2 a3 a2e ||
agf edc | Bcd f2 e | cde eae | cde f2 e |
agf edc | Bcd f2 a | efe dcB |1 c/2B/2A2 ea2 :|2 BA2 A3 ||
